packages/blockchain-info-components/src/Images/img/alert-orange.svg

<svg fill="none" height="16" viewBox="0 0 16 16" width="16" xmlns="http://www.w3.org/2000/svg"><path d="m6.6665 3.3335h2.66667v9.33333h-2.66667z" fill="#fff"/><path d="m8 16c4.416 0 8-3.584 8-8s-3.584-7.99999961-8-8-7.99999961 3.584-8 8 3.584 8 8 8zm-.8-12h1.6v4.8h-1.6zm0 6.4h1.6v1.6h-1.6z" fill="#ff9b22"/></svg>

<svg width="16" height="16" viewBox="0 0 16 16" fill="none" xmlns="http://www.w3.org/2000/svg">
<rect x="6.6665" y="3.3335" width="2.66667" height="9.33333" fill="white"/>
<path d="M8 16C12.416 16 16 12.416 16 8C16 3.584 12.416 3.86059e-07 8 0C3.584 -3.86059e-07 3.86059e-07 3.584 0 8C-3.86059e-07 12.416 3.584 16 8 16ZM7.2 4H8.8V8.8H7.2V4ZM7.2 10.4H8.8V12H7.2V10.4Z" fill="#FF9B22"/>
</svg>
